X:1
T: Democratic Hornpipe
C:
R:Reel
Q: 232
K:Gm
M:4/4
L:1/8
|:GA|BA Bc dc df|gf ga fa bg|fd bg fd cd|BA GF GF DF|
G2 GA BA BG|F2 FG AG FD|GA Bc dc BA|B2 G2 G2:|
|:g2|gf df ga bg|gf df GF DF|BA Bc dc de|fc dB AG FD|
BF dB AF ec|BF dB AF ec|df ga ba gf|d2 g2 g2:|
